X: 1
T:Peter Street
R:reel
Z:id:hn-reel-550
M:C|
K:A
A2 (3cBA eA (3cBA|eAaA gAfA|1 eA (3cBA eA (3cBA|BEcE dEcB:|2 efec eaec|
BABc A2GF||E2 (3GFE BE (3GFE|BEdE cEBE|A2 (3cBA eA (3cBA|eAaA gAfA|
efec ~a3f|efec ~a3f|ecag fedc|BAGF EFGE||
